icons/simple_logo_fill.svg

<svg width="48" height="48" viewBox="0 0 48 48" fill="none" xmlns="http://www.w3.org/2000/svg">
<path fill-rule="evenodd" clip-rule="evenodd" d="M10.0886 29.3442C10.0886 37.3775 16.5607 43.8896 24.5444 43.8896C32.5281 43.8896 39.0001 37.3775 39.0001 29.3442C39.0001 18.4351 24.5444 3.88965 24.5444 3.88965C24.5444 3.88965 10.0886 18.4351 10.0886 29.3442ZM30.3753 33.4584C30.9685 32.6823 32.0749 32.5369 32.8464 33.1335C33.618 33.7302 33.7626 34.8431 33.1693 35.6193L32.9266 35.9369C28.6942 41.4743 20.3947 41.4743 16.1623 35.9369L15.9195 35.6193C15.3264 34.8431 15.4709 33.7302 16.2425 33.1335C17.0141 32.5369 18.1204 32.6823 18.7136 33.4584L18.9564 33.7759C21.7779 37.4675 27.3109 37.4675 30.1325 33.7759L30.3753 33.4584Z" fill="black"/>
</svg>

<svg
  xmlns="http://www.w3.org/2000/svg"
  width="24"
  height="24"
  viewBox="0 0 24 24"
  fill="none"
  stroke="currentColor"
  stroke-width="2"
  stroke-linecap="round"
  stroke-linejoin="round"
>
  <path
    fill-rule="evenodd"
    d="M10.089 29.344c0 8.033 6.472 14.546 14.455 14.546C32.528 43.89 39 37.377 39 29.344 39 18.435 24.544 3.89 24.544 3.89S10.09 18.435 10.09 29.344m20.286 4.114a1.755 1.755 0 0 1 2.471-.325 1.78 1.78 0 0 1 .323 2.486l-.242.318c-4.233 5.537-12.532 5.537-16.765 0l-.242-.318a1.78 1.78 0 0 1 .322-2.486 1.755 1.755 0 0 1 2.472.325l.242.318c2.822 3.691 8.355 3.691 11.177 0z"
    clip-rule="evenodd"
  />
</svg>
